X:1
T:[ID 3-59]
T:[ID 3-59]
T:Bezeichnung standardisiert: Allegro Allegro
T:Urheber unbekannt Datum in der hier transkribierten schriftlichen Quelle: 1775
C:Urheber unbekannt
C:Datum in der hier transkribierten schriftlichen Quelle: 1775
L:1/8
M:2/4
K:D
V:1 treble 
V:1
 F | F/A/ d2 c | d/e/ f2 e | dffe | dA Fd | Ae eA | AffA | e2 d/c/d | c3 :: c | AeAe | AfAf | %12
 A e2 d | c3 d | FDFA | dAeA | fedA | FAdf | g2 e2 | fAdf | ge eg/e/ | fd df/d/ | bg gb/g/ | %23
 af fa/f/ | eAdA | c2 z f | dffe | d2 TA2 | F3 :| %29

